X: 429
T: Valse No. 2	 Op. 69
C: Fryderyk Chopin
%%abc-version 2.0
%%abcx-abcm2ps-target-version 5.9.1 (29 Sep 2008)
%%abc-creator hum2abc beta
%%abcx-conversion-date 2021/10/03 11:23:43
%%abc-edited-by Jędrzej Mróz
%%abcx-initial-encoding-date 2019-11-21
%%humdrum-veritas 1668343181
%%humdrum-veritas-data 1134352652
%%linebreak <none>
%%barnumbers 0
L: 1/4
M: 3/4
N: Derived from 069-1a-Sam-002.krn
P: ŒUVRES POSTHUMES | POUR LE | PIANO | DE | FRÉD. CHOPIN
Q: "[quarter] = 152."
%%staves {1 2}
V: 1 clef=treble
V: 2 clef=bass
K: D
[V:1] !accent!f- [I:setbarnb 2]| 
[V:2] z | 
[V:1] f/g/f/c/d/B/ | 
[V:2] B,,[DB,F,][DB,F,] | 
[V:1] ^A2!accent!f- | 
[V:2] C,[ECF,][ECF,] | 
[V:1] f/g/f/c/e/d/ | 
[V:2] ^A,,[E^A,F,][EA,F,] | 
[V:1] B2!accent!f- | 
[V:2] B,,[DB,F,][DB,F,] | 
[V:1] f/g/^e/f/b/d'/ | 
[V:2] B,,[DB,F,][DB,F,] | 
[V:1] d'^e!accent!d'- | 
[V:2] B,,[DB,^G,][DB,G,] | 
[V:1] d'=ec'- | 
[V:2] B,,[EB,=G,][EB,G,] | 
[V:1] c'/b/^a/g/f/c/ | 
[V:2] B,,[ECF,][E^A,F,] | 
[V:1] d/g/f/c/d/B/ | 
[V:2] B,,[DB,F,][DB,F,] | 
[V:1] ^A2!accent!f- | 
[V:2] C,[ECF,][ECF,] | 
[V:1] f/g/f/c/e/d/ | 
[V:2] F,,[E^A,F,][ECF,] | 
[V:1] B2!accent!f- | 
[V:2] B,,[DB,F,][DB,F,] | 
[V:1] f/f'/c'/d'/^a/b/ | 
[V:2] D,[DB,F,][DB,F,] | 
[V:1] =a/g/B/c/d/e/ | 
[V:2] E,[GCB,]z | 
[V:1] g/f/B/d/c/F/ | 
[V:2] F,2x & F,[DB,][E^A,] | 
[V:1] B/^E/F/^A/B/c/ | 
[V:2] [DB,]B,,z | 
[V:1] d/g/f/c/d/B/ | 
[V:2] B,,[DB,F,][DB,F,] | 
[V:1] ^A2!accent!f- | 
[V:2] C,[ECF,][ECF,] | 
[V:1] f/g/f/c/e/d/ | 
[V:2] ^A,,[ECF,][E^A,F,] | 
[V:1] B2!accent!f- | 
[V:2] B,,[DB,F,][DB,F,] | 
[V:1] f/g/^e/f/b/d'/ | 
[V:2] B,,[DB,F,][DB,F,] | 
[V:1] d'^e!accent!d'- | 
[V:2] B,,[DB,^G,][DB,G,] | 
[V:1] d'=e!accent!c'- | 
[V:2] B,,[EB,=G,][EB,G,] | 
[V:1] c'/b/^a/g/f/c/ | 
[V:2] B,,[ECF,][E^A,F,] | 
[V:1] d/g/f/c/d/B/ | 
[V:2] B,,[DB,F,][DB,F,] | 
[V:1] ^A2!accent!f- | 
[V:2] C,[ECF,][ECF,] | 
[V:1] f/g/f/c/e/d/ | 
[V:2] F,,[E^A,F,][ECF,] | 
[V:1] B2!accent!f | 
[V:2] B,,[DB,F,][DB,F,] | 
[V:1] f'/c'/d'/^a/b/f/ | 
[V:2] D,[DB,F,][DB,F,] | 
[V:1] =a/g/B/c/e/g/ | 
[V:2] E,[CG,]z | 
[V:1] g/f/B/d/c/F/ | 
[V:2] F,2x & F,[DB,][E^A,] | 
[V:1] B>FB/_B/ | 
[V:2] B,,[DF,]D, | 
[V:1] !accent!_B>Ac/e/ | 
[V:2] C,[EA,G,][EA,G,] | 
[V:1] g>fc/d/ | 
[V:2] D,[DA,F,][DA,F,] | 
[V:1] f>eB/c/ | 
[V:2] A,,[GCA,][GCA,] | 
[V:1] e>dc/B/ | 
[V:2] D,[FDA,][FDA,] | 
[V:1] B>Ac/e/ | 
[V:2] C,[GEA,][GEA,] | 
[V:1] g>fc/d/ | 
[V:2] D,[FDA,][FDA,] | 
[V:1] f>eB/c/ | 
[V:2] G,,[EB,G,][EB,G,] | 
[V:1] ^A>cG/c/ | 
[V:2] [F,F,,][ECF,][EB,F,] | 
[V:1] F>^Ac/e/ | 
[V:2] [F,F,,][ECF,][E^A,F,] | 
[V:1] g>fc/d/ | 
[V:2] B,,[DB,F,][DB,F,] | 
[V:1] f>eB/c/ | 
[V:2] A,,[GCA,][GEA,] | 
[V:1] e>dc/B/ | 
[V:2] D,[FDA,][FDA,] | 
[V:1] B>Ac/e/ | 
[V:2] C,[GEA,][GEA,] | 
[V:1] g>fc/d/ | 
[V:2] D,[FDA,][FDA,] | 
[V:1] f>ef'/e'/ | 
[V:2] G,,[EG,]z | 
[V:1] d'/^c'/=c'/b/^a/=a/ | 
[V:2] F,,[EF,]^A,, | 
[V:1] ^g/=g/f/c/d/B/ | 
[V:2] B,,[DF,][DF,] | 
[V:1] ^Az=a | 
[V:2] C,[ECF,][ECF,] | 
[V:1] ^g/=g/f/c/e/d/ | 
[V:2] ^A,,[ECF,][ECF,] | 
[V:1] Bza | 
[V:2] B,,[DB,F,][DB,F,] | 
[V:1] ^g/=g/^e/f/b/d'/ | 
[V:2] B,,[DB,F,][DB,F,] | 
[V:1] d'^e!accent!d'- | 
[V:2] B,,[DB,^G,][DB,G,] | 
[V:1] d'=e!accent!c' | 
[V:2] B,,[EB,=G,][EB,G,] | 
[V:1] =c'/b/^a/=a/^g/=g/ | 
[V:2] B,,[E^A,F,][EA,F,] | 
[V:1] f/=f/e/d/c/B/ | 
[V:2] B,,[DB,F,][DB,F,] | 
[V:1] ^A2!accent!g | 
[V:2] C,[ECF,][ECF,] | 
[V:1] f/g/f/c/e/d/ | 
[V:2] ^A,,[E^A,F,][ECF,] | 
[V:1] B2!accent!f | 
[V:2] B,,[DB,F,][DB,F,] | 
[V:1] f'/c'/d'/^a/b/f/ | 
[V:2] D,[DB,F,][DB,F,] | 
[V:1] =a/g/B/c/e/g/ | 
[V:2] E,[CG,]z | 
[V:1] g/f/B/d/c/F/ | 
[V:2] F,3 & F,[DB,][E^A,] | 
[V:1] B>FB/_B/ | 
[V:2] B,,[DF,]D, | 
[V:1] !accent!_B>Ac/e/ | 
[V:2] C,[EA,G,][EA,G,] | 
[V:1] g>fc/d/ | 
[V:2] D,[DA,F,][DA,F,] | 
[V:1] f>eB/c/ | 
[V:2] A,,[GCA,][GCA,] | 
[V:1] e>dc/B/ | 
[V:2] D,[FDA,][FDA,] | 
[V:1] B>Ac/e/ | 
[V:2] C,[GEA,][GEA,] | 
[V:1] g>fc/d/ | 
[V:2] D,[FDA,][FDA,] | 
[V:1] f>eB/c/ | 
[V:2] G,,[EB,G,][EB,G,] | 
[V:1] ^A>cG/c/ | 
[V:2] [F,F,,][ECF,][EB,F,] | 
[V:1] F>^Ac/e/ | 
[V:2] [F,F,,][ECF,][E^A,F,] | 
[V:1] g>fc/d/ | 
[V:2] B,,[DB,F,][DB,F,] | 
[V:1] f>eB/c/ | 
[V:2] A,,[GCA,][GEA,] | 
[V:1] e>dc/B/ | 
[V:2] D,[FDA,][FDA,] | 
[V:1] B>Ac/e/ | 
[V:2] C,[GEA,][GEA,] | 
[V:1] g>fc/d/ | 
[V:2] D,[FDA,][FDA,] | 
[V:1] f>ef'/e'/ | 
[V:2] G,,[EG,]z | 
[V:1] d'/^c'/=c'/b/^a/=a/ | 
[V:2] F,,[EF,]^A,, | 
[V:1] ^g/=g/f/c/d/B/ | 
[V:2] B,,[DF,][DF,] | 
[V:1] ^Az=a | 
[V:2] C,[ECF,][ECF,] | 
[V:1] ^g/=g/f/c/e/d/ | 
[V:2] ^A,,[ECF,][ECF,] | 
[V:1] Bza | 
[V:2] B,,[DB,F,][DB,F,] | 
[V:1] ^g/=g/^e/f/b/d'/ | 
[V:2] B,,[DB,F,][DB,F,] | 
[V:1] d'^e!accent!d'- | 
[V:2] B,,[DB,^G,][DB,G,] | 
[V:1] d'e!accent!c' | 
[V:2] B,,[EB,=G,][EB,G,] | 
[V:1] =c'/b/^a/=a/^g/=g/ | 
[V:2] B,,[E^A,F,][EA,F,] | 
[V:1] f/=f/e/d/c/B/ | 
[V:2] B,,[DB,F,][DB,F,] | 
[V:1] ^A2!accent!g | 
[V:2] C,[ECF,][ECF,] | 
[V:1] f/g/f/c/e/d/ | 
[V:2] ^A,,[E^A,F,][ECF,] | 
[V:1] B2!accent!f | 
[V:2] B,,[DB,F,][DB,F,] | 
[V:1] f'/c'/d'/^a/b/f/ | 
[V:2] D,[DB,F,][DB,F,] | 
[V:1] =a/g/B/c/e/g/ | 
[V:2] E,[CG,]z | 
[V:1] g/f/B/d/c/F/ | 
[V:2] F,3 & F,[DB,][E^A,] | 
[V:1] BzF ||  
[V:2] [DB,]B,,z ||  
[V:1]  [K:B] d/e/d/c/d/e/ | 
[V:2]  [K:B] B,,[DB,F,][DB,F,] | 
[V:1] !accent!g2f | 
[V:2] A,,[ECF,][ECF,] | 
[V:1] d/e/d/c/d/e/ | 
[V:2] B,,[DB,F,][DB,F,] | 
[V:1] !accent!g2f | 
[V:2] A,,[ECF,][ECF,] | 
[V:1] fd'/>d'/d' | 
[V:2] B,,[DB,F,][DB,F,] | 
[V:1] c'e/>e/e | 
[V:2] F,,[E^A,F,][EA,F,] | 
[V:1] db/>b/b | 
[V:2] B,,[DB,F,][DB,F,] | 
[V:1] ac/>c/e | 
[V:2] F,,[EA,F,][EA,F,] | 
[V:1] d/e/d/c/d/e/ | 
[V:2] B,,[DB,F,][DB,F,] | 
[V:1] g2f | 
[V:2] A,,[ECF,][ECF,] | 
[V:1] d/e/d/c/d/e/ | 
[V:2] B,,[DB,F,][DB,F,] | 
[V:1] g2f | 
[V:2] A,,[ECF,][ECF,] | 
[V:1] db/>b/!accent!b | 
[V:2] B,,[DB,F,][DB,G,] | 
[V:1] ac/>c/!accent!c | 
[V:2] C,[FCA,][FCA,] | 
[V:1] Bg/>g/!accent!g | 
[V:2] C,[^ECG,][ECG,] | 
[V:1] fA/>A/!accent!e | 
[V:2] F,,[=ECF,][ECF,] | 
[V:1] [d/B/][e/c/][d/B/][c/F/][d/B/][e/c/] | 
[V:2] B,,[DB,F,][DB,F,] | 
[V:1] [g2A2][fA] | 
[V:2] F,,[ECF,][ECF,] | 
[V:1] [d/B/][e/c/][d/B/][c/F/][d/B/][e/c/] | 
[V:2] B,,[DB,F,][DB,F,] | 
[V:1] [g2A2][fA] | 
[V:2] F,,[ECF,][ECF,] | 
[V:1] [fd][d'/f/]>[d'/f/][d'f] | 
[V:2] B,,[DB,F,][DB,F,] | 
[V:1] [c'e][e/c/]>[e/c/][ec] | 
[V:2] F,,[ECF,][ECF,] | 
[V:1] [dB][b/d/]>[b/d/][bd] | 
[V:2] B,,[DB,F,][DB,F,] | 
[V:1] [ac][c/A/]>[c/A/][ec] | 
[V:2] F,,[ECF,][ECF,] | 
[V:1] [=d/B/][e/c/][d/B/][c/F/][d/B/][e/c/] | 
[V:2] B,,[=DB,F,][DB,F,] | 
[V:1] !accent![=g2A2][fA] | 
[V:2] F,,[ECF,][ECF,] | 
[V:1] [=d/B/][e/c/][d/B/][c/F/][d/B/][e/c/] | 
[V:2] B,,[=DB,F,][DB,F,] | 
[V:1] =g2x & !accent![=g2A2][fA] | 
[V:2] F,,[EF,][EF,] | 
[V:1] [f=d][e/F/]z//[e//F//][dB] | 
[V:2] B,,[=DF,]B,, | 
[V:1] [=dB][c/^E/]z//[c//E//][BE] | 
[V:2] =G,,[B,^E,C,][B,E,C,] | 
[V:1] Ac2- & F3- | 
[V:2] F,,[A,F,C,][A,F,C,] | 
[V:1] [cF]F!accent!f- ||  
[V:2] F,,[EA,F,][EA,F,] ||  
[V:1]  [K:D] f/g/f/c/d/B/ | 
[V:2]  [K:D] B,,,[DB,F,][DB,F,] | 
[V:1] ^A2!accent!f- | 
[V:2] C,[ECF,][ECF,] | 
[V:1] f/g/f/c/e/d/ | 
[V:2] ^A,,[E^A,F,][EA,F,] | 
[V:1] B2!accent!f- | 
[V:2] B,,[DB,F,][DB,F,] | 
[V:1] f/g/^e/f/b/d'/ | 
[V:2] B,,[DB,F,][DB,F,] | 
[V:1] d'^ed'- | 
[V:2] B,,[DB,^G,][DB,G,] | 
[V:1] d'=e!accent!c'- | 
[V:2] B,,[EB,=G,][EB,G,] | 
[V:1] c'/b/^a/g/f/c/ | 
[V:2] B,,[ECF,][E^A,F,] | 
[V:1] d/g/f/c/d/B/ | 
[V:2] B,,[DB,F,][DB,F,] | 
[V:1] ^A2!accent!f- | 
[V:2] C,[ECF,][ECF,] | 
[V:1] f/g/f/c/e/d/ | 
[V:2] F,,[E^A,F,][ECF,] | 
[V:1] B2!accent!f- | 
[V:2] B,,[DB,F,][DB,F,] | 
[V:1] f/f'/c'/d'/^a/b/ | 
[V:2] D,[DB,F,][DB,F,] | 
[V:1] =a/g/B/c/d/e/ | 
[V:2] E,[GCB,]z | 
[V:1] g/f/B/d/c/F/ | 
[V:2] F,3 & F,[DB,][E^A,] | 
[V:1] B>FB/_B/ | 
[V:2] B,,[DF,]D, | 
[V:1] !accent!_B>Ac/e/ | 
[V:2] C,[EA,G,][EA,G,] | 
[V:1] g>fc/d/ | 
[V:2] D,[DA,F,][DA,F,] | 
[V:1] f>eB/c/ | 
[V:2] A,,[GCA,][GCA,] | 
[V:1] e>dc/B/ | 
[V:2] D,[FDA,][FDA,] | 
[V:1] B>Ac/e/ | 
[V:2] C,[GEA,][GEA,] | 
[V:1] g>fc/d/ | 
[V:2] D,[FDA,][FDA,] | 
[V:1] f>eB/c/ | 
[V:2] G,,[EB,G,][EB,G,] | 
[V:1] ^A>cG/c/ | 
[V:2] [F,F,,][ECF,][EB,F,] | 
[V:1] F>^Ac/e/ | 
[V:2] [F,F,,][ECF,][E^A,F,] | 
[V:1] g>fc/d/ | 
[V:2] B,,[DB,F,][DB,F,] | 
[V:1] f>eB/c/ | 
[V:2] A,,[GCA,][GEA,] | 
[V:1] e>dc/B/ | 
[V:2] D,[FDA,][FDA,] | 
[V:1] B>Ac/e/ | 
[V:2] C,[GEA,][GEA,] | 
[V:1] g>fc/d/ | 
[V:2] D,[FDA,][FDA,] | 
[V:1] f>ef'/e'/ | 
[V:2] G,,[EG,]z | 
[V:1] d'/^c'/=c'/b/^a/=a/ | 
[V:2] F,,[EF,]^A,, | 
[V:1] ^g/=g/f/c/d/B/ | 
[V:2] B,,[DF,][DF,] | 
[V:1] ^Az=a | 
[V:2] C,[ECF,][ECF,] | 
[V:1] ^g/=g/f/c/e/d/ | 
[V:2] ^A,,[ECF,][ECF,] | 
[V:1] Bza | 
[V:2] B,,[DB,F,][DB,F,] | 
[V:1] ^g/=g/^e/f/b/d'/ | 
[V:2] B,,[DB,F,][DB,F,] | 
[V:1] d'^e!accent!d'- | 
[V:2] B,,[DB,^G,][DB,G,] | 
[V:1] d'=e!accent!c' | 
[V:2] B,,[EB,=G,][EB,G,] | 
[V:1] =c'/b/^a/=a/^g/=g/ | 
[V:2] B,,[E^A,F,][EA,F,] | 
[V:1] f/=f/e/d/c/B/ | 
[V:2] B,,[DB,F,][DB,F,] | 
[V:1] ^A2!accent!g | 
[V:2] C,[ECF,][ECF,] | 
[V:1] f/g/f/c/e/d/ | 
[V:2] ^A,,[E^A,F,][ECF,] | 
[V:1] B2!accent!f | 
[V:2] B,,[DB,F,][DB,F,] | 
[V:1] f'/c'/d'/^a/b/f/ | 
[V:2] D,[DB,F,][DB,F,] | 
[V:1] =a/g/B/c/e/g/ | 
[V:2] E,[CG,]z | 
[V:1] g/f/B/d/c/F/ | 
[V:2] F,2x & F,[DB,][E^A,] | 
[V:1] Bzz |]  
[V:2] [DB,]B,,z |]
